site.svg

<svg aria-hidden="true" focusable="false" data-prefix="fas" data-icon="globe" class="svg-inline--fa fa-globe fa-w-16" role="img" xmlns="http://www.w3.org/2000/svg" viewBox="0 0 496 512"><path fill="currentColor" d="M336.5 160C322 70.7 287.8 8 248 8s-74 62.7-88.5 152h177zM152 256c0 22.2 1.2 43.5 3.3 64h185.3c2.1-20.5 3.3-41.8 3.3-64s-1.2-43.5-3.3-64H155.3c-2.1 20.5-3.3 41.8-3.3 64zm324.7-96c-28.6-67.9-86.5-120.4-158-141.6 24.4 33.8 41.2 84.7 50 141.6h108zM177.2 18.4C105.8 39.6 47.8 92.1 19.3 160h108c8.7-56.9 25.5-107.8 49.9-141.6zM487.4 192H372.7c2.1 21 3.3 42.5 3.3 64s-1.2 43-3.3 64h114.6c5.5-20.5 8.6-41.8 8.6-64s-3.1-43.5-8.5-64zM120 256c0-21.5 1.2-43 3.3-64H8.6C3.2 212.5 0 233.8 0 256s3.2 43.5 8.6 64h114.6c-2-21-3.2-42.5-3.2-64zm39.5 96c14.5 89.3 48.7 152 88.5 152s74-62.7 88.5-152h-177zm159.3 141.6c71.4-21.2 129.4-73.7 158-141.6h-108c-8.8 56.9-25.6 107.8-50 141.6zM19.3 352c28.6 67.9 86.5 120.4 158 141.6-24.4-33.8-41.2-84.7-50-141.6h-108z"></path></svg>

<?xml version="1.0" encoding="utf-8"?>
<!-- Generator: Adobe Illustrator 19.2.1, SVG Export Plug-In . SVG Version: 6.00 Build 0)  -->
<svg version="1.1" id="Capa_1" focusable="false" xmlns="http://www.w3.org/2000/svg" xmlns:xlink="http://www.w3.org/1999/xlink"
	 x="0px" y="0px" viewBox="0 0 496 512" style="enable-background:new 0 0 496 512;" xml:space="preserve">
<style type="text/css">
	.st0{fill:#FFFFFF;}
</style>
<path class="st0" d="M336.5,160C322,70.7,287.8,8,248,8s-74,62.7-88.5,152H336.5z M152,256c0,22.2,1.2,43.5,3.3,64h185.3
	c2.1-20.5,3.3-41.8,3.3-64s-1.2-43.5-3.3-64H155.3C153.2,212.5,152,233.8,152,256z M476.7,160c-28.6-67.9-86.5-120.4-158-141.6
	c24.4,33.8,41.2,84.7,50,141.6H476.7z M177.2,18.4C105.8,39.6,47.8,92.1,19.3,160h108C136,103.1,152.8,52.2,177.2,18.4L177.2,18.4z
	 M487.4,192H372.7c2.1,21,3.3,42.5,3.3,64s-1.2,43-3.3,64h114.6c5.5-20.5,8.6-41.8,8.6-64S492.8,212.5,487.4,192L487.4,192z
	 M120,256c0-21.5,1.2-43,3.3-64H8.6C3.2,212.5,0,233.8,0,256s3.2,43.5,8.6,64h114.6C121.2,299,120,277.5,120,256z M159.5,352
	c14.5,89.3,48.7,152,88.5,152s74-62.7,88.5-152H159.5z M318.8,493.6c71.4-21.2,129.4-73.7,158-141.6h-108
	C360,408.9,343.2,459.8,318.8,493.6z M19.3,352c28.6,67.9,86.5,120.4,158,141.6c-24.4-33.8-41.2-84.7-50-141.6
	C127.3,352,19.3,352,19.3,352z"/>
</svg>
